packages/icons/raw/imported/SoftwareShutdown.svg

<svg width="32" height="32" viewBox="0 0 32 32" fill="none" xmlns="http://www.w3.org/2000/svg">
<path d="M15.5 13.537C15.5 13.8132 15.7239 14.037 16 14.037C16.2762 14.037 16.5 13.8132 16.5 13.537H15.5ZM16.5 6.5C16.5 6.22386 16.2762 6 16 6C15.7239 6 15.5 6.22386 15.5 6.5H16.5ZM18.999 8.61988C18.7384 8.52839 18.4531 8.66544 18.3616 8.92599C18.2701 9.18654 18.4071 9.47192 18.6677 9.5634L18.999 8.61988ZM13.3323 9.5634C13.5929 9.47192 13.7299 9.18654 13.6384 8.92599C13.5469 8.66544 13.2616 8.52839 13.001 8.61988L13.3323 9.5634ZM16.5 13.537V6.5H15.5V13.537H16.5ZM24 17.0556C24 21.4401 20.4214 25 16 25V26C20.9675 26 25 21.9985 25 17.0556H24ZM16 25C11.5786 25 8 21.4401 8 17.0556H7C7 21.9985 11.0325 26 16 26V25ZM18.6677 9.5634C21.7767 10.6551 24 13.5994 24 17.0556H25C25 13.1583 22.4928 9.84668 18.999 8.61988L18.6677 9.5634ZM8 17.0556C8 13.5994 10.2233 10.6551 13.3323 9.5634L13.001 8.61988C9.50725 9.84668 7 13.1583 7 17.0556H8Z" fill="black"/>
</svg>

<svg width="32" height="32" fill="none" xmlns="http://www.w3.org/2000/svg"><path d="M15.5 13.537a.5.5 0 1 0 1 0h-1Zm1-7.037a.5.5 0 1 0-1 0h1Zm2.499 2.12a.5.5 0 1 0-.331.943l.331-.943Zm-5.667.943a.5.5 0 1 0-.331-.943l.331.943Zm3.168 3.974V6.5h-1v7.037h1Zm7.5 3.519C24 21.44 20.421 25 16 25v1c4.968 0 9-4.002 9-8.944h-1ZM16 25c-4.421 0-8-3.56-8-7.944H7C7 21.998 11.033 26 16 26v-1Zm2.668-15.437C21.777 10.655 24 13.6 24 17.056h1c0-3.898-2.507-7.21-6.001-8.436l-.331.943ZM8 17.056c0-3.457 2.223-6.4 5.332-7.493l-.331-.943C9.507 9.847 7 13.158 7 17.056h1Z" fill="#000"/></svg>
